!! 00000] TT[WS
!!!OTL: Ge qingcai
!!!ARE: Asia, China,ÿShanxi Linxian
!! Ethnic Group: Han
!! WI, 72
!!!SCT: J0086
!!!YEM: Copyright 1995, estate of Helmut Schaffrath.
**kern
*ICvox
*Ivox
*M2/4
*k[f#]
*G:
{8dd
16ee
16dd
16b
16dd
16b
16a
=1
8dd
16ee
16dd
16b
16dd
16b
16a
=2
8.g
16e
16dd
16ee
16dd
16b
=3
16a
16b
16a
16e
4g}
=4
{16g
8g
16a
16dd
16ee
16dd
16a
=5
16g
16a
16b
16ee
16dd
16b
16a
16g
=6
16a
8e
16d
16g
16a
16dd
16a
=7
16g
16f#
16e
16B
4d}
=8
{16dd
16a
16dd
16ee
16dd
16b
16a
16g
=9
16a
8e
16d
16g
16a
16dd
16a
=10
16g
16f#
16e
16B
4d}
==
!!!AGN: Xiaodiao. Laodong, Shouhuo
!!!ONB: ESAC (Essen Associative Code) Database: CHINA
!!!AMT: simple duple
!!!AIN: vox
!!!EED: Helmut Schaffrath
!!!EEV: 1.0
*-
